assets/svg/1F21A.svg

<svg xmlns="http://www.w3.org/2000/svg" viewBox="0 0 64 64" enable-background="new 0 0 64 64"><path fill="#f6921e" d="m63.758 56.912c0 3.784-3.064 6.844-6.844 6.844h-49.825c-3.779 0-6.848-3.06-6.848-6.844v-49.824c0-3.784 3.069-6.844 6.848-6.844h49.825c3.779 0 6.844 3.06 6.844 6.844v49.824"/><path fill="#d07929" d="m.241 48.534v8.305c0 3.783 3.067 6.851 6.846 6.851h49.827c3.779 0 6.844-3.067 6.844-6.851v-49.821c-10.846 39.4-49.835 41.894-63.52 41.516"/><g fill="#fff"><path d="m8.385 17.05c0-1.239 1.01-2.244 2.243-2.244h44.27c1.236 0 2.242 1 2.242 2.244l0 0c0 1.239-1.01 2.245-2.242 2.245h-44.27c-1.237 0-2.242-1.01-2.242-2.245l0 0"/><path d="m5.242 21.771c-.903-.85-.949-2.27-.099-3.17l8.411-8.97c.852-.904 2.271-.949 3.176-.103l0 0c.903.851.948 2.272.102 3.173l-8.418 8.971c-.847.9-2.268.947-3.172.099l0 0"/><path d="m5.258 52.25c-.904-.849-.949-2.27-.101-3.172l8.877-6.119c.849-.905 2.268-.947 3.172-.101l0 0c.903.848.948 2.269.101 3.173l-8.877 6.116c-.848.905-2.267.949-3.172.103l0 0"/><path d="m58.76 52.25c.904-.847.947-2.267.1-3.172l-7.951-6.119c-.852-.905-2.271-.947-3.172-.101l0 0c-.906.848-.951 2.267-.102 3.173l7.951 6.116c.846.908 2.268.949 3.174.103l0 0"/><path d="m45.734 54.17c1.029-.684 1.313-2.08.627-3.114l-6.334-7.397c-.686-1.033-2.078-1.315-3.111-.629l0 0c-1.031.686-1.316 2.075-.631 3.11l6.338 7.397c.686 1.033 2.078 1.315 3.111.633l0 0"/><path d="m30.33 56.16c1.201-.301 1.93-1.525 1.629-2.728l-2.544-9.07c-.303-1.202-1.524-1.93-2.724-1.627l0 0c-1.202.302-1.931 1.523-1.631 2.725l2.547 9.07c.301 1.202 1.521 1.931 2.723 1.63l0 0"/><path d="m16.245 39.663c-1.239 0-2.242-.591-2.242-1.32v-21.372c0-.729 1-1.32 2.242-1.32l0 0c1.241 0 2.247.591 2.247 1.32v21.372c-.0001.729-1.01 1.32-2.247 1.32l0 0"/><path d="m27.23 39.663c-1.239 0-2.243-.591-2.243-1.32v-21.372c0-.729 1-1.32 2.243-1.32l0 0c1.241 0 2.246.591 2.246 1.32v21.372c0 .729-1 1.32-2.246 1.32l0 0"/><path d="m38.16 39.663c-1.24 0-2.244-.591-2.244-1.32v-21.372c0-.729 1-1.32 2.244-1.32l0 0c1.238 0 2.246.591 2.246 1.32v21.372c0 .729-1.01 1.32-2.246 1.32l0 0"/><path d="m49.27 39.663c-1.238 0-2.242-.591-2.242-1.32v-21.372c0-.729 1-1.32 2.242-1.32l0 0c1.24 0 2.246.591 2.246 1.32v21.372c0 .729-1.01 1.32-2.246 1.32l0 0"/><path d="m8.385 38.2c0-1.237 1.01-2.243 2.243-2.243h44.27c1.236 0 2.242 1.01 2.242 2.243l0 0c0 1.242-1.01 2.244-2.242 2.244h-44.27c-1.237 0-2.242-1-2.242-2.244l0 0"/><path d="m6.428 27.656c0-1.24 1.101-2.242 2.458-2.242h47.747c1.357 0 2.459 1 2.459 2.242l0 0c0 1.24-1.102 2.244-2.459 2.244h-47.747c-1.357 0-2.458-1-2.458-2.244l0 0"/></g></svg>

<?xml version="1.0" encoding="UTF-8" standalone="no"?>
<!-- Generator: Adobe Illustrator 16.0.0, SVG Export Plug-In . SVG Version: 6.00 Build 0)  -->

<svg
   xmlns:dc="http://purl.org/dc/elements/1.1/"
   xmlns:cc="http://creativecommons.org/ns#"
   xmlns:rdf="http://www.w3.org/1999/02/22-rdf-syntax-ns#"
   xmlns:svg="http://www.w3.org/2000/svg"
   xmlns="http://www.w3.org/2000/svg"
   xmlns:sodipodi="http://sodipodi.sourceforge.net/DTD/sodipodi-0.dtd"
   xmlns:inkscape="http://www.inkscape.org/namespaces/inkscape"
   version="1.1"
   id="Layer_1"
   x="0px"
   y="0px"
   width="64px"
   height="64px"
   viewBox="0 0 64 64"
   enable-background="new 0 0 64 64"
   xml:space="preserve"
   inkscape:version="0.48.5 r10040"
   sodipodi:docname="1F21A.svg"
   inkscape:export-filename="D:\TESTINGEMOJI\SVGTEST\1F21A.png"
   inkscape:export-xdpi="90"
   inkscape:export-ydpi="90"><metadata
   id="metadata8299"><rdf:RDF><cc:Work
       rdf:about=""><dc:format>image/svg+xml</dc:format><dc:type
         rdf:resource="http://purl.org/dc/dcmitype/StillImage" /><dc:title></dc:title></cc:Work></rdf:RDF></metadata><defs
   id="defs8297" /><sodipodi:namedview
   pagecolor="#ffffff"
   bordercolor="#666666"
   borderopacity="1"
   objecttolerance="10"
   gridtolerance="10"
   guidetolerance="10"
   inkscape:pageopacity="0"
   inkscape:pageshadow="2"
   inkscape:window-width="640"
   inkscape:window-height="480"
   id="namedview8295"
   showgrid="false"
   inkscape:zoom="3.6875"
   inkscape:cx="32"
   inkscape:cy="32"
   inkscape:window-x="613"
   inkscape:window-y="262"
   inkscape:window-maximized="0"
   inkscape:current-layer="Layer_1" />
<g
   id="g8261">
	<g
   id="g8263">
		<path
   fill="#F6921E"
   d="M63.758,56.912c0,3.784-3.064,6.844-6.844,6.844H7.089c-3.779,0-6.848-3.06-6.848-6.844V7.088    c0-3.784,3.069-6.844,6.848-6.844h49.825c3.779,0,6.844,3.06,6.844,6.844V56.912z"
   id="path8265" />
		<path
   fill="#D07929"
   d="M0.241,48.534v8.305c0,3.783,3.067,6.851,6.846,6.851h49.827c3.779,0,6.844-3.067,6.844-6.851V7.018    C52.912,46.415,13.923,48.912,0.241,48.534z"
   id="path8267" />
	</g>
	<g
   id="g8269">
		<path
   fill="#FFFFFF"
   d="M8.385,17.05c0-1.239,1.005-2.244,2.243-2.244h44.265c1.236,0,2.242,1.004,2.242,2.244l0,0    c0,1.239-1.006,2.245-2.242,2.245H10.627C9.39,19.295,8.385,18.289,8.385,17.05L8.385,17.05z"
   id="path8271" />
		<path
   fill="#FFFFFF"
   d="M5.242,21.771c-0.903-0.85-0.949-2.27-0.099-3.17l8.411-8.97c0.852-0.904,2.271-0.949,3.176-0.103l0,0    c0.903,0.851,0.948,2.272,0.102,3.173l-8.418,8.971C7.567,22.572,6.146,22.619,5.242,21.771L5.242,21.771z"
   id="path8273" />
		<path
   fill="#FFFFFF"
   d="M5.258,52.251c-0.904-0.849-0.949-2.27-0.101-3.172l8.877-6.119c0.849-0.905,2.268-0.947,3.172-0.101l0,0    c0.903,0.848,0.948,2.269,0.101,3.173L8.43,52.148C7.582,53.053,6.163,53.097,5.258,52.251L5.258,52.251z"
   id="path8275" />
		<path
   fill="#FFFFFF"
   d="M58.76,52.251c0.904-0.847,0.947-2.267,0.1-3.172l-7.951-6.119c-0.852-0.905-2.271-0.947-3.172-0.101l0,0    c-0.906,0.848-0.951,2.267-0.102,3.173l7.951,6.116C56.432,53.056,57.854,53.097,58.76,52.251L58.76,52.251z"
   id="path8277" />
		<path
   fill="#FFFFFF"
   d="M45.734,54.175c1.029-0.684,1.313-2.08,0.627-3.114l-6.334-7.397c-0.686-1.033-2.078-1.315-3.111-0.629    l0,0c-1.031,0.686-1.316,2.075-0.631,3.11l6.338,7.397C43.309,54.575,44.701,54.857,45.734,54.175L45.734,54.175z"
   id="path8279" />
		<path
   fill="#FFFFFF"
   d="M30.327,56.157c1.201-0.301,1.93-1.525,1.629-2.728l-2.544-9.074c-0.303-1.202-1.524-1.93-2.724-1.627l0,0    c-1.202,0.302-1.931,1.523-1.631,2.725l2.547,9.074C27.905,55.729,29.125,56.458,30.327,56.157L30.327,56.157z"
   id="path8281" />
		<path
   fill="#FFFFFF"
   d="M16.245,39.663c-1.239,0-2.242-0.591-2.242-1.32V16.971c0-0.729,1.003-1.32,2.242-1.32l0,0    c1.241,0,2.247,0.591,2.247,1.32v21.372C18.491,39.072,17.486,39.663,16.245,39.663L16.245,39.663z"
   id="path8283" />
		<path
   fill="#FFFFFF"
   d="M27.233,39.663c-1.239,0-2.243-0.591-2.243-1.32V16.971c0-0.729,1.004-1.32,2.243-1.32l0,0    c1.241,0,2.246,0.591,2.246,1.32v21.372C29.479,39.072,28.474,39.663,27.233,39.663L27.233,39.663z"
   id="path8285" />
		<path
   fill="#FFFFFF"
   d="M38.156,39.663c-1.24,0-2.244-0.591-2.244-1.32V16.971c0-0.729,1.004-1.32,2.244-1.32l0,0    c1.238,0,2.246,0.591,2.246,1.32v21.372C40.402,39.072,39.395,39.663,38.156,39.663L38.156,39.663z"
   id="path8287" />
		<path
   fill="#FFFFFF"
   d="M49.27,39.663c-1.238,0-2.242-0.591-2.242-1.32V16.971c0-0.729,1.004-1.32,2.242-1.32l0,0    c1.24,0,2.246,0.591,2.246,1.32v21.372C51.516,39.072,50.51,39.663,49.27,39.663L49.27,39.663z"
   id="path8289" />
		<path
   fill="#FFFFFF"
   d="M8.385,38.199c0-1.237,1.005-2.243,2.243-2.243h44.265c1.236,0,2.242,1.006,2.242,2.243l0,0    c0,1.242-1.006,2.244-2.242,2.244H10.627C9.39,40.443,8.385,39.441,8.385,38.199L8.385,38.199z"
   id="path8291" />
		<path
   fill="#FFFFFF"
   d="M6.428,27.656c0-1.24,1.101-2.242,2.458-2.242h47.747c1.357,0,2.459,1.002,2.459,2.242l0,0    c0,1.24-1.102,2.244-2.459,2.244H8.886C7.529,29.9,6.428,28.896,6.428,27.656L6.428,27.656z"
   id="path8293" />
	</g>
</g>
</svg>
